rospo-icon-theme-classic-common/22x22/places/folder-green-yandex-disk.svg

<svg height="22" width="22" xmlns="http://www.w3.org/2000/svg"><rect height="12" opacity=".2" rx="1" width="20" x="1" y="8.5"/><path d="m1 16c0 .554.446 1 1 1h18c .554 0 1-.446 1-1v-11c0-.554-.446-1-1-1h-10v-1c0-.554-.446-1-1-1h-7c-.554 0-1 .446-1 1" fill="#60924b"/><rect height="12" opacity=".2" rx="1" width="20" x="1" y="7.5"/><rect fill="#e4e4e4" height="8" rx="1" width="16" x="3" y="6"/><rect fill="#87b158" height="12" rx="1" width="20" x="1" y="8"/><path d="m2 2c-.554 0-1 .446-1 1v .5c0-.554.446-1 1-1h7c .554 0 1 .446 1 1v-.5c0-.554-.446-1-1-1zm8 2v .5h10c .554 0 1 .446 1 1v-.5c0-.554-.446-1-1-1z" fill="#fff" opacity=".1"/><path d="m10.546 11.023c-1.7778 0-1.3642 1.624-2.2745 2.113-.0313.018-.049.035-.0771.052.6003-.357 1.3402-.656 2.1256-.858.666-.171 1.341-.267 1.963-.28h.048c-.6-.17-.666-1.027-1.785-1.027zm1.938 1.478c-.623.012-1.298.108-1.963.279-2.1937.564-3.7568 1.792-3.4917 2.741.1528.543.8888.901 1.9854.966-.0005-.004-.0015-.007-.002-.012-.0592-.513.2666-.96.6485-1.262.3818-.303.8728-.523 1.4248-.64s1.068-.111 1.5.019c.406.122.788.388.882.846 1.099-.616 1.669-1.359 1.504-1.96-.175-.629-1.129-1.004-2.488-.977zm-.653 2.499a.92931 1.7885 76.001 0 0 -.688.071.92931 1.7885 76.001 0 0 -1.64 1.3.92931 1.7885 76.001 0 0 1.855.558.92931 1.7885 76.001 0 0 1.638-1.3.92931 1.7885 76.001 0 0 -1.165-.629z" fill="#2f3e1f"/></svg>

<svg xmlns="http://www.w3.org/2000/svg" width="22" height="22" version="1">
 <rect style="opacity:0.2" width="20" height="12" x="1" y="8.5" rx="1" ry="1"/>
 <path style="fill:#60924b" d="M 1,16 C 1,16.554 1.446,17 2,17 H 20 C 20.554,17 21,16.554 21,16 V 5 C 21,4.446 20.554,4 20,4 H 10 V 3 C 10,2.446 9.554,2 9,2 H 2 C 1.446,2 1,2.446 1,3"/>
 <rect style="opacity:0.2" width="20" height="12" x="1" y="7.5" rx="1" ry="1"/>
 <rect style="fill:#dcdcdc" width="16" height="8" x="3" y="6" rx="1" ry="1"/>
 <rect style="fill:#87b158" width="20" height="12" x="1" y="8" rx="1" ry="1"/>
 <path style="opacity:0.1;fill:#ffffff" d="M 2,2 C 1.446,2 1,2.446 1,3 V 3.5 C 1,2.946 1.446,2.5 2,2.5 H 9 C 9.554,2.5 10,2.946 10,3.5 V 3 C 10,2.446 9.554,2 9,2 Z M 10,4 V 4.5 H 20 C 20.554,4.5 21,4.946 21,5.5 V 5 C 21,4.446 20.554,4 20,4 Z"/>
 <path style="fill:#2f3e1f" d="M 10.546,11.023 C 8.7682,11.023 9.1818,12.647 8.2715,13.136 8.2402,13.154 8.2225,13.171 8.1944,13.188 8.7947,12.831 9.5346,12.532 10.32,12.33 10.986,12.159 11.661,12.063 12.283,12.05 12.299,12.05 12.315,12.05 12.331,12.05 11.731,11.88 11.665,11.023 10.546,11.023 Z M 12.484,12.501 C 11.861,12.513 11.186,12.609 10.521,12.78 8.3273,13.344 6.7642,14.572 7.0293,15.521 7.1821,16.064 7.9181,16.422 9.0147,16.487 9.0142,16.483 9.0132,16.48 9.0127,16.475 8.9535,15.962 9.2793,15.515 9.6612,15.213 10.043,14.91 10.534,14.69 11.086,14.573 11.638,14.456 12.154,14.462 12.586,14.592 12.992,14.714 13.374,14.98 13.468,15.438 14.567,14.822 15.137,14.079 14.972,13.478 14.797,12.849 13.843,12.474 12.484,12.501 Z M 11.831,15 A 0.92931,1.7885 76.001 0 0 11.143,15.071 0.92931,1.7885 76.001 0 0 9.503,16.371 0.92931,1.7885 76.001 0 0 11.358,16.929 0.92931,1.7885 76.001 0 0 12.996,15.629 0.92931,1.7885 76.001 0 0 11.831,15 Z"/>
</svg>
